X: 1
T: Moment of Truth
T: 8 x 32S 3C (RSCDS Bk 37)
P: Miss Erskine of Torry
M: 4/4
R: Strathspey
C: James Walker, Glen Colln.
C: arr. T. Traub 12-22-2001
L: 1/8
K: Am
|: B|"Am"c<AA>B c<AA>c|"G"B<dd>c BGGB|"Am"c>A"E7"d>B "Am"e>c"E7"d>B|"Am"e/d/c/B/ "E7"e>B "Am"cA A :|
^g|"Am"a>ee>d c>AA>c|"G"G>gdg BGG^g|"Am"a>ee>d c>Aa>g|"Dm"f/e/d/c/ "E7"B/c/d/B/ "Am"cAA^g|
"Am"a>ee>d c>A"D7"A>c|"G"G>gdg "Em"BGGB|"Am"(3ABc "E"(3Bcd "Am"cde "Dm"def|"Am"e>a"E"^g>b "Am"aA A |]
